X: 06027
T: HANNAH'S REEL
C: Bob McQuillen 10 Sept 81
B: Bob's Note Book 6 #27
%R: reel
Z: 2021 John Chambers <jc:trillian.mit.edu>
M: C
L: 1/8
K: D
A,B, \
| D2DF EDFE | DEDB, A,2FG | A2AB AdBd | ABAF EDFE |\
| D2DF ABdf | edfe dedB | ABdf edBA | F2D2 D2 :|
|: AB \
| d2df efdf | efdB AFEF | B2Bd edef | edBA FEDB, |\
| A,DB,D EDEF | ABdf edfe | dfed BAFD | E2D2 D2 :|
%%begintext align
%% This tune is
%% for Hannah DesRosiers. She's Mary's little
%% daughter, and she's a real sweetheart.
%%endtext

%%sep 1 1 500

%%sep 1 1 500

